!!!OTL: ES LIEGT EIN SCHLOESSCHEN IN OESTERREICH
!!!ARE: Europa, Mitteleuropa, Deutschland; France, Elsass
!!!SCT: E0061K
!!!YEM: Copyright 1995, estate of Helmut Schaffrath.
**kern
*ICvox
*Ivox
*M2/4
*k[f#]
*G:
{8d
8g
8b
=1
4g
8f#
8g
=2
8a
8b
4g
=3
8r}
{8g
8b
8dd
=4
8.dd
16cc
8b
8a
=5
4g
4a
=6
8r}
{8g
8b
8g
=7
8.dd
16ee
8dd
8b
=8
8a
8g
4cc
=9
8r}
{8b
8a
8g
=10
8.dd
16ee
8dd
8b
=11
8a
8g
4cc
=12
8r}
{8b
8a
8g
=13
4cc
4b
=14
4a
4g
=15
8r}
==
!!!AGN: erzaehlendes Volks - Lied, Sage, Mord, Ballade ?
!!!ONB: ESAC (Essen Associative Code) Database: ERK1
!!!AMT: simple duple
!!!AIN: vox
!!!EED: Helmut Schaffrath
!!!EEV: 1.0
*-
